Catalina-dark/actions/22/xml-text-new.svg

<svg xmlns="http://www.w3.org/2000/svg" viewBox="0 0 22 22">
  <defs id="defs3051">
    <style type="text/css" id="current-color-scheme">
      .ColorScheme-Text {
        color:#f2f2f2;
      }
      </style>
  </defs>
 <path 
    style="fill:currentColor;fill-opacity:1;stroke:none" 
    d="M 16 3 L 16 5 L 14 5 L 14 6 L 16 6 L 16 8 L 17 8 L 17 6 L 19 6 L 19 5 L 17 5 L 17 3 L 16 3 z M 7.9101562 5 L 4.5957031 14.59375 L 4.4726562 15 L 3 19 L 4.6582031 19 L 6.2832031 14.5625 L 11.716797 14.5625 L 13.341797 19 L 15 19 L 13.527344 15 L 13.404297 14.59375 L 10.089844 5 L 9.875 5 L 8.125 5 L 7.9101562 5 z M 9.015625 6.9375 L 11.195312 13.28125 L 6.8046875 13.28125 L 9.015625 6.9375 z "
    class="ColorScheme-Text"
    />  
</svg>

<svg viewBox="0 0 22 22" xmlns="http://www.w3.org/2000/svg">
<defs>
<style id="current-color-scheme" type="text/css">.ColorScheme-Text {
        color:#f2f2f2;
      }</style>
</defs>
<path class="ColorScheme-Text" d="m16 3v2h-2v1h2v2h1v-2h2v-1h-2v-2h-1zm-8.0898 2-3.3145 9.5938-0.12305 0.40625-1.4727 4h1.6582l1.625-4.4375h5.4336l1.625 4.4375h1.6582l-1.4727-4-0.12305-0.40625-3.3145-9.5938h-2.1797zm1.1055 1.9375 2.1797 6.3438h-4.3906l2.2109-6.3438z" fill="currentColor"/>
</svg>
